X:314
T:My Window Faces the South
C:Jesse Cobb (Hot Club of Nashville, Station Inn 11-23-05)
N:Transcribed by Steve Keating
R:bluegrass
L:1/8
Q:1/4=305
M:4/4
K:A
z8 | "A"z4 Bc e2 | z2 (3f=gf e^g fe | df ed =c^c AF | EF AF AB cA | BA =GF EF GA | 
BA Bd cA Bc | "D"dc de fd ec | "D#dim7"^d=g zd g2 d2 | "A"z2 ^de ee ef | "F#"ec FD EF AB | 
"B"B4 Bc ^dc | ^de fe fg af | "E"gb ab ge eg | fA cf ef e=c | "A"cA =cB AB ^cA | 
BD FB AF EF | =GE F2 E2 DB, | CB, A,A, A,4 | z2 A,B, CD ED | EF =GA BA Bd | ed e=g bg eg | 
z2 ed cA Bc | "D"dc df af ba | (3"D#dim7"b=c'b af ef ac' | "A"c'b af ef ac' | 
"F#"e'c' a2 f4 | "B"zA Bd f3a | "E"gf eg fe fg | "A"aa =gg {g}ff =ff | "E"e=g fA df ed | 
=c/^c/z =c^c e=c BA | =c/^c/z =c^c e=c ^ce | =cB Ac BA =GA | [A4E4] EF EB, | CB, A,=G, A,G, G,D | 
ED EF =GA B2 | Bd ed e=g ag | ab =g2 ag fe | dB A=G FE DE | FA BA Bc dc | e^d ed ea fe | 
f2 =f4 BA | Bc ^dc Bc BD | FE DE FD EF | G2 z^A, z=A, z2 | G,4 z2 A,^A, | B,D E2 EF =GA | 
B2 Bd c2 Ac | e2 ce =g2 eg | b=g a4 ea | c'b ba af ef | ac' e'e' c'a c'e' | d'2 d'e'/=f'/ f'e' d'b | 
d'e' =g'f' e'f' g'e' | f'2 e'2 d'e' d'e | =c'd' c'e bc' be | ab ae ga ge | f2 fg ag f2 | 
fe ^d2 dc df | ec eg ze fg | aa =g2 f2 ff | e=g f2 de =c^c | A8 | z8 | z8 | z8 | 


